app/dist/common/images/zhejiang-provincial-new-energy-investment.svg

<svg height="18" viewBox="0 0 18 18" width="18" xmlns="http://www.w3.org/2000/svg"><path d="m0 0h18v18h-18z" fill="#f0f3fa"/><path d="m4 5.9v1.46l3.33-2.07v1.24l-3.33 2.27v2.66l1.33-.88v-1.05l3.17-1.93v-4.6zm10 .56-1-.66v3.9l-1.48-.87-.02-4.06-2-1.24v1.59l.83.36v3.88l3.67 2.11zm-5.23 8.54 1.5-.84-3.39-1.75.87-.65 3.6 1.87 2.32-1.43-1.24-.68-1.05.64-3.26-1.75-3.79 2.3z" fill="#e5322c"/></svg>

<!-- by TradingView --><svg width="18" height="18" viewBox="0 0 18 18" xmlns="http://www.w3.org/2000/svg"><path fill="#F0F3FA" d="M0 0h18v18H0z"/><path d="M4 5.9v1.46l3.33-2.07v1.24L4 8.8v2.66l1.33-.88V9.53L8.5 7.6V3L4 5.9ZM14 6.46l-1-.66V9.7l-1.48-.87-.02-4.06-2-1.24v1.59l.83.36v3.88L14 11.47V6.46ZM8.77 15l1.5-.84-3.39-1.75.87-.65 3.6 1.87 2.32-1.43-1.24-.68-1.05.64-3.26-1.75-3.79 2.3L8.77 15Z" fill="#E5322C"/></svg>
